icons/src/svg/burger.svg

<svg width="32" height="32" viewBox="0 0 32 32" fill="none" xmlns="http://www.w3.org/2000/svg">
<path fill-rule="evenodd" clip-rule="evenodd" d="M3.96973 6.99805C3.96973 6.44576 4.41744 5.99805 4.96973 5.99805L27.0211 5.99805C27.5734 5.99805 28.0211 6.44576 28.0211 6.99805C28.0211 7.55033 27.5734 7.99805 27.0211 7.99805L4.96973 7.99805C4.41744 7.99805 3.96973 7.55033 3.96973 6.99805Z" fill="#0D0F13"/>
<path fill-rule="evenodd" clip-rule="evenodd" d="M3.96973 15.9822C3.96973 15.4299 4.41744 14.9822 4.96973 14.9822L27.0211 14.9822C27.5734 14.9822 28.0211 15.4299 28.0211 15.9822C28.0211 16.5345 27.5734 16.9822 27.0211 16.9822L4.96973 16.9822C4.41744 16.9822 3.96973 16.5345 3.96973 15.9822Z" fill="#0D0F13"/>
<path fill-rule="evenodd" clip-rule="evenodd" d="M3.96973 24.9668C3.96973 24.4145 4.41744 23.9668 4.96973 23.9668L27.0211 23.9668C27.5734 23.9668 28.0211 24.4145 28.0211 24.9668C28.0211 25.5191 27.5734 25.9668 27.0211 25.9668L4.96973 25.9668C4.41744 25.9668 3.96973 25.5191 3.96973 24.9668Z" fill="#0D0F13"/>
</svg>

<svg fill="none" xmlns="http://www.w3.org/2000/svg" viewBox="0 0 32 32">
  <path fill-rule="evenodd" clip-rule="evenodd" d="M3.97 6.998a1 1 0 0 1 1-1h22.05a1 1 0 0 1 0 2H4.97a1 1 0 0 1-1-1ZM3.97 15.982a1 1 0 0 1 1-1h22.05a1 1 0 0 1 0 2H4.97a1 1 0 0 1-1-1ZM3.97 24.966a1 1 0 0 1 1-1h22.05a1 1 0 0 1 0 2H4.97a1 1 0 0 1-1-1Z" fill="currentColor"/>
</svg>
